**kern	**silbe	**harmony	**phrase	**leadinstrument	**rhyme	**timestamp	**harte
*ICvox	*	*M4/4	*	*	*	*	*M4/4
*VRlead	*	*	*	*	*	*	*
*Hstimme	*	*	*	*	*	*	*
*A:	*	*A:	*	*	*	*	*A:
*M4/4	*	*	*	*	*	*	*
*clefG2	*	*	*	*	*	*	*
r;	.	1r;	.	r	.	0	N.C.
=1	=1	=1	=1	=1	=1	=1	=1
*>Letter>A	*>Letter>A	*>Letter>A	*>Letter>A	*>Letter>A	*>Letter>A	*>Letter>A	*>Letter>A
*>Label>Intro	*>Label>Intro	*>Label>Intro	*>Label>Intro	*>Label>Intro	*>Label>Intro	*>Label>Intro	*>Label>Intro
1r	.	2AM	newline	harmonica	.	0.116	A:maj
.	.	2F#Mm	.	harmonica	.	1.048	F#:7
=2	=2	=2	=2	=2	=2	=2	=2
1r	.	2Bmm	.	harmonica	.	1.98	B:min7
.	.	2EMm	.	harmonica	.	2.912	E:7
=3	=3	=3	=3	=3	=3	=3	=3
1r	.	2AM	.	harmonica	.	3.844	A:maj
.	.	2F#Mm	.	harmonica	.	4.776	F#:7
=4	=4	=4	=4	=4	=4	=4	=4
1r	.	2Bmm	.	harmonica	.	5.708	B:min7
.	.	2EMm	.	harmonica	.	6.64	E:7
=5	=5	=5	=5	=5	=5	=5	=5
1r	.	2AM	newline	harmonica	.	7.572	A:maj
.	.	2F#Mm	.	harmonica	.	8.495	F#:7
=6	=6	=6	=6	=6	=6	=6	=6
1r	.	2Bmm	.	harmonica	.	9.419	B:min7
.	.	2EMm	.	harmonica	.	10.342	E:7
=7	=7	=7	=7	=7	=7	=7	=7
1r	.	2AM	.	harmonica	.	11.265	A:maj
.	.	2F#Mm	.	harmonica	.	12.188	F#:7
=8	=8	=8	=8	=8	=8	=8	=8
2r	.	2Bmm	.	harmonica	.	13.112	B:min7
4r	.	2EMm	.	harmonica	.	14.035	E:7
8r	.	.	.	.	.	.	.
[8e	Hey	.	.	.	.	.	.
=9	=9	=9	=9	=9	=9	=9	=9
*>Letter>A	*>Letter>A	*>Letter>A	*>Letter>A	*>Letter>A	*>Letter>A	*>Letter>A	*>Letter>A
*>Label>Chorus	*>Label>Chorus	*>Label>Chorus	*>Label>Chorus	*>Label>Chorus	*>Label>Chorus	*>Label>Chorus	*>Label>Chorus
1e_	_	2AM	newline	voice	.	14.958	A:maj
.	.	2F#Mm	.	voice	.	15.882	F#:7
=10	=10	=10	=10	=10	=10	=10	=10
2e]	_	2Bmm	.	voice	.	16.805	B:min7
8f#	Hey	2EMm	.	voice	.	17.729	E:7
4c#	_	.	.	.	.	.	.
[8e	ba	.	.	.	.	.	.
=11	=11	=11	=11	=11	=11	=11	=11
8e]	_	2AM	.	voice	.	18.653	A:maj
8f#	by	.	.	.	.	.	.
2r	.	.	.	.	.	.	.
.	.	2F#Mm	.	voice	.	19.576	F#:7
4r	.	.	.	.	.	.	.
=12	=12	=12	=12	=12	=12	=12	=12
4r	.	2Bmm	.	voice	.	20.5	B:min7
8r	.	.	.	.	.	.	.
[8c#	I	.	.	.	.	.	.
8c#]	_	2EMm	.	voice	.	21.424	E:7
8c#	wan	.	.	.	.	.	.
8d	na	.	.	.	.	.	.
[8e	know	.	.	.	.	.	.
=13	=13	=13	=13	=13	=13	=13	=13
8e]	_	2AM	newline	voice	.	22.347	A:maj
8f#	_	.	.	.	.	.	.
8c#	_	.	.	.	.	.	.
[8A	_	.	.	.	.	.	.
4A]	_	2F#Mm	.	voice	.	23.267	F#:7
4r	.	.	.	.	.	.	.
=14	=14	=14	=14	=14	=14	=14	=14
4r	.	2Bmm	.	voice	.	24.186	B:min7
8A	if	.	.	.	.	.	.
8A	you'll	.	.	.	.	.	.
8c#	be	2EMm	.	voice	.	25.106	E:7
4c#	my	.	.	.	.	.	.
[8A	girl	.	.	.	.	.	.
=15	=15	=15	=15	=15	=15	=15	=15
2A]	_	2AM	.	voice	.	26.025	A:maj
2r	.	2F#Mm	.	voice	.	26.945	F#:7
=16	=16	=16	=16	=16	=16	=16	=16
2r	.	2Bmm	.	voice	.	27.864	B:min7
4r	.	2EMm	.	voice	.	28.784	E:7
8r	.	.	.	.	.	.	.
[8e	Hey	.	.	.	.	.	.
=17	=17	=17	=17	=17	=17	=17	=17
*>Letter>A	*>Letter>A	*>Letter>A	*>Letter>A	*>Letter>A	*>Letter>A	*>Letter>A	*>Letter>A
*>Label>Chorus	*>Label>Chorus	*>Label>Chorus	*>Label>Chorus	*>Label>Chorus	*>Label>Chorus	*>Label>Chorus	*>Label>Chorus
1e_	_	2AM	newline	voice	.	29.703	A:maj
.	.	2F#Mm	.	voice	.	30.619	F#:7
=18	=18	=18	=18	=18	=18	=18	=18
2e]	_	2Bmm	.	voice	.	31.534	B:min7
8f#	Hey	2EMm	.	voice	.	32.45	E:7
4c#	_	.	.	.	.	.	.
[8e	ba	.	.	.	.	.	.
=19	=19	=19	=19	=19	=19	=19	=19
8e]	_	2AM	.	voice	.	33.365	A:maj
8f#	by	.	.	.	.	.	.
2r	.	.	.	.	.	.	.
.	.	2DM	.	voice	.	34.281	D:maj
4r	.	.	.	.	.	.	.
=20	=20	=20	=20	=20	=20	=20	=20
4r	.	2AM	.	voice	.	35.196	A:maj
8r	.	.	.	.	.	.	.
[8c#	I	.	.	.	.	.	.
8c#]	_	2AMm	.	voice	.	36.112	A:7
8c#	wan	.	.	.	.	.	.
8d	na	.	.	.	.	.	.
[8e	know	.	.	.	.	.	.
=21	=21	=21	=21	=21	=21	=21	=21
8e]	_	2AM	newline	voice	.	37.027	A:maj
8f#	_	.	.	.	.	.	.
8c#	_	.	.	.	.	.	.
[8A	_	.	.	.	.	.	.
4A]	_	2F#M	.	voice	.	37.964	F#:maj
4r	.	.	.	.	.	.	.
=22	=22	=22	=22	=22	=22	=22	=22
4r	.	2Bm	.	voice	.	38.901	B:min
8A	If	.	.	.	.	.	.
8A	you'll	.	.	.	.	.	.
8c#	be	2EM	.	voice	.	39.838	E:maj
4c#	my	.	.	.	.	.	.
[8A	girl	.	.	.	.	.	.
=23	=23	=23	=23	=23	=23	=23	=23
2A]	_	2AM	.	voice	.	40.774	A:maj
2r	.	2DM	.	voice	.	41.711	D:maj
=24	=24	=24	=24	=24	=24	=24	=24
1r	.	2AM	.	voice	.	42.648	A:maj
.	.	2AMm	.	voice	.	43.584	A:7
=25	=25	=25	=25	=25	=25	=25	=25
*>Letter>B	*>Letter>B	*>Letter>B	*>Letter>B	*>Letter>B	*>Letter>B	*>Letter>B	*>Letter>B
*>Label>Verse	*>Label>Verse	*>Label>Verse	*>Label>Verse	*>Label>Verse	*>Label>Verse	*>Label>Verse	*>Label>Verse
4r	.	1DM	newline	voice	.	44.521	D:maj
8A	When	.	.	.	.	.	.
8F#	I	.	.	.	.	.	.
8A	saw	.	.	.	.	.	.
8F#	you	.	.	.	.	.	.
8A	walk	.	.	.	.	.	.
8F#	in'	.	.	.	.	.	.
=26	=26	=26	=26	=26	=26	=26	=26
4A	down	1DM	.	voice	.	46.343	D:maj
8A	the	.	.	.	.	.	.
[8c#	street	.	.	.	A	.	.
4c#]	_	.	.	.	.	.	.
8r	.	.	.	.	.	.	.
[8A	I	.	.	.	.	.	.
=27	=27	=27	=27	=27	=27	=27	=27
8A]	_	1AM	.	voice	.	48.165	A:maj
8f#	said	.	.	.	.	.	.
8e	that's	.	.	.	.	.	.
8c#	the	.	.	.	.	.	.
8e	kind	.	.	.	.	.	.
8c#	of	.	.	.	.	.	.
8e	girl	.	.	.	.	.	.
[8f#	I'd	.	.	.	.	.	.
=28	=28	=28	=28	=28	=28	=28	=28
8f#]	_	1AMm	.	voice	.	49.987	A:7
8e	like	.	.	.	.	.	.
8c#	to	.	.	.	.	.	.
8e	meet	.	.	.	A	.	.
4f#	_	.	.	.	.	.	.
8r	.	.	.	.	.	.	.
[8B	She's	.	.	.	.	.	.
=29	=29	=29	=29	=29	=29	=29	=29
4B]	_	1DM	newline	voice	.	51.809	D:maj
4B	so	.	.	.	.	.	.
8A	pret	.	.	.	.	.	.
8F#	ty	.	.	.	.	.	.
8r	.	.	.	.	.	.	.
[8B	Lord	.	.	.	.	.	.
=30	=30	=30	=30	=30	=30	=30	=30
4B]	_	1DM	.	voice	.	53.651	D:maj
4A	she's	.	.	.	.	.	.
8B	fine	.	.	.	B	.	.
8A	_	.	.	.	.	.	.
4F#	_	.	.	.	.	.	.
=31	=31	=31	=31	=31	=31	=31	=31
8r	.	1BM	.	voice	.	55.494	B:maj
8B	I'm	.	.	.	.	.	.
8B	gon	.	.	.	.	.	.
8B	na	.	.	.	.	.	.
8B	make	.	.	.	.	.	.
4B	her	.	.	.	.	.	.
[8f#	mine	.	.	.	B	.	.
=32	=32	=32	=32	=32	=32	=32	=32
8f#]	_	1N	.	voice	.	57.336	N.C.
8e	all	.	.	.	.	.	.
8c#	_	.	.	.	.	.	.
4e	mine	.	.	.	B	.	.
8f#	_	.	.	.	.	.	.
8e	_	.	.	.	.	.	.
8c#	_	.	.	.	.	.	.
=33	=33	=33	=33	=33	=33	=33	=33
*>Letter>A	*>Letter>A	*>Letter>A	*>Letter>A	*>Letter>A	*>Letter>A	*>Letter>A	*>Letter>A
*>Label>Chorus	*>Label>Chorus	*>Label>Chorus	*>Label>Chorus	*>Label>Chorus	*>Label>Chorus	*>Label>Chorus	*>Label>Chorus
[1e	Hey	2AM	newline	voice	.	59.179	A:maj
.	.	2F#Mm	.	voice	.	60.106	F#:7
=34	=34	=34	=34	=34	=34	=34	=34
2e]	_	2Bmm	.	voice	.	61.033	B:min7
8f#	Hey	2EMm	.	voice	.	61.96	E:7
4c#	_	.	.	.	.	.	.
[8e	ba	.	.	.	.	.	.
=35	=35	=35	=35	=35	=35	=35	=35
8e]	_	2AM	.	voice	.	62.887	A:maj
8f#	by	.	.	.	.	.	.
2r	.	.	.	.	.	.	.
.	.	2F#Mm	.	voice	.	63.814	F#:7
4r	.	.	.	.	.	.	.
=36	=36	=36	=36	=36	=36	=36	=36
4r	.	2Bmm	.	voice	.	64.741	B:min7
8r	.	.	.	.	.	.	.
[8c#	I	.	.	.	.	.	.
8c#]	_	2EMm	.	voice	.	65.668	E:7
8c#	wan	.	.	.	.	.	.
8d	na	.	.	.	.	.	.
[8e	know	.	.	.	.	.	.
=37	=37	=37	=37	=37	=37	=37	=37
8e]	_	2AM	newline	voice	.	66.595	A:maj
8f#	_	.	.	.	.	.	.
8c#	_	.	.	.	.	.	.
[8A	_	.	.	.	.	.	.
4A]	_	2F#Mm	.	voice	.	67.524	F#:7
4r	.	.	.	.	.	.	.
=38	=38	=38	=38	=38	=38	=38	=38
4r	.	2Bmm	.	voice	.	68.453	B:min7
8A	If	.	.	.	.	.	.
8A	you'll	.	.	.	.	.	.
8c#	be	2EMm	.	voice	.	69.382	E:7
4c#	my	.	.	.	.	.	.
[8A	girl	.	.	.	.	.	.
=39	=39	=39	=39	=39	=39	=39	=39
2A]	_	2AM	.	voice	.	70.311	A:maj
2r	.	2DM	.	voice	.	71.24	D:maj
=40	=40	=40	=40	=40	=40	=40	=40
1r	.	2AM	.	voice	.	72.168	A:maj
.	.	4A-M	.	voice	.	73.097	A-:1
.	.	4GM	.	voice	.	73.562	G:1
=41	=41	=41	=41	=41	=41	=41	=41
*>Letter>C	*>Letter>C	*>Letter>C	*>Letter>C	*>Letter>C	*>Letter>C	*>Letter>C	*>Letter>C
*>Label>Bridge	*>Label>Bridge	*>Label>Bridge	*>Label>Bridge	*>Label>Bridge	*>Label>Bridge	*>Label>Bridge	*>Label>Bridge
4r	.	1F#Mm	newline	voice	.	74.026	F#:7
8A#	When	.	.	.	.	.	.
8A#	you	.	.	.	.	.	.
4A#	turned	.	.	.	.	.	.
4A#	and	.	.	.	.	.	.
=42	=42	=42	=42	=42	=42	=42	=42
8c#	walked	1F#Mm	.	voice	.	75.865	F#:7
4A#	a	.	.	.	.	.	.
8F#	way	.	.	.	C	.	.
2r	.	.	.	.	.	.	.
=43	=43	=43	=43	=43	=43	=43	=43
4r	.	1BMm	.	voice	.	77.704	B:7
2d#	That's	.	.	.	.	.	.
4d#	when	.	.	.	.	.	.
=44	=44	=44	=44	=44	=44	=44	=44
8f#	I	1BMm	.	voice	.	79.543	B:7
8d#	want	.	.	.	.	.	.
8c#	to	.	.	.	.	.	.
8B	say	.	.	.	C	.	.
2r	.	.	.	.	.	.	.
=45	=45	=45	=45	=45	=45	=45	=45
8r	.	1EMm	newline	voice	.	81.382	E:7
8e	Come	.	.	.	.	.	.
8e	on	.	.	.	.	.	.
8c#	_	.	.	.	.	.	.
8e	ba	.	.	.	.	.	.
8c#	by	.	.	.	.	.	.
8e	give	.	.	.	.	.	.
8c#	_	.	.	.	.	.	.
=46	=46	=46	=46	=46	=46	=46	=46
8e	me	1EMm	.	voice	.	83.24	E:7
8e	a	.	.	.	.	.	.
8c#	_	.	.	.	.	.	.
4f#	whirl	.	.	.	D	.	.
8e	_	.	.	.	.	.	.
8r	.	.	.	.	.	.	.
8a	I	.	.	.	.	.	.
=47	=47	=47	=47	=47	=47	=47	=47
4e	_	1AM	.	voice	.	85.099	A:maj
8e	wan	.	.	.	.	.	.
8e	na	.	.	.	.	.	.
4e	know	.	.	.	.	.	.
8e	if	.	.	.	.	.	.
8e	you'll	.	.	.	.	.	.
=48	=48	=48	=48	=48	=48	=48	=48
8a	be	1N	.	voice	.	86.957	N.C.
4c#	my	.	.	.	.	.	.
[8A	girl	.	.	.	D	.	.
4A]	_	.	.	.	.	.	.
4r	.	.	.	.	.	.	.
=49	=49	=49	=49	=49	=49	=49	=49
*>Letter>A	*>Letter>A	*>Letter>A	*>Letter>A	*>Letter>A	*>Letter>A	*>Letter>A	*>Letter>A
*>Label>Chorus	*>Label>Chorus	*>Label>Chorus	*>Label>Chorus	*>Label>Chorus	*>Label>Chorus	*>Label>Chorus	*>Label>Chorus
[1e	Hey	2AM	newline	voice	.	88.816	A:maj
.	.	2F#M	.	voice	.	89.74	F#:maj
=50	=50	=50	=50	=50	=50	=50	=50
2e]	_	2Bmm	.	voice	.	90.664	B:min7
8f#	Hey	2EMm	.	voice	.	91.588	E:7
4c#	_	.	.	.	.	.	.
[8e	ba	.	.	.	.	.	.
=51	=51	=51	=51	=51	=51	=51	=51
8e]	_	2AM	.	voice	.	92.513	A:maj
8f#	by	.	.	.	.	.	.
2r	.	.	.	.	.	.	.
.	.	2F#M	.	voice	.	93.437	F#:maj
4r	.	.	.	.	.	.	.
=52	=52	=52	=52	=52	=52	=52	=52
4r	.	2Bmm	.	voice	.	94.361	B:min7
8r	.	.	.	.	.	.	.
[8c#	I	.	.	.	.	.	.
8c#]	_	2EMm	.	voice	.	95.285	E:7
8c#	wan	.	.	.	.	.	.
8d	na	.	.	.	.	.	.
[8e	know	.	.	.	.	.	.
=53	=53	=53	=53	=53	=53	=53	=53
8e]	_	2AM	newline	voice	.	96.21	A:maj
8f#	_	.	.	.	.	.	.
8c#	_	.	.	.	.	.	.
[8A	_	.	.	.	.	.	.
4A]	_	2F#M	.	voice	.	97.149	F#:maj
4r	.	.	.	.	.	.	.
=54	=54	=54	=54	=54	=54	=54	=54
4r	.	2Bmm	.	voice	.	98.088	B:min7
8A	If	.	.	.	.	.	.
8A	you'll	.	.	.	.	.	.
8c#	be	2EMm	.	voice	.	99.027	E:7
4c#	my	.	.	.	.	.	.
[8A	girl	.	.	.	D	.	.
=55	=55	=55	=55	=55	=55	=55	=55
2A]	_	2AM	.	voice	.	99.967	A:maj
2r	.	2F#M	.	voice	.	100.906	F#:maj
=56	=56	=56	=56	=56	=56	=56	=56
1r	.	2Bmm	.	voice	.	101.845	B:min7
.	.	2EMm	.	voice	.	102.784	E:7
=57	=57	=57	=57	=57	=57	=57	=57
*>Letter>C	*>Letter>C	*>Letter>C	*>Letter>C	*>Letter>C	*>Letter>C	*>Letter>C	*>Letter>C
*>Label>Bridge	*>Label>Bridge	*>Label>Bridge	*>Label>Bridge	*>Label>Bridge	*>Label>Bridge	*>Label>Bridge	*>Label>Bridge
4r	.	1F#Mm	newline	voice	.	103.724	F#:7
8A#	When	.	.	.	.	.	.
8A#	you	.	.	.	.	.	.
4A#	turned	.	.	.	.	.	.
4A#	and	.	.	.	.	.	.
=58	=58	=58	=58	=58	=58	=58	=58
8c#	walked	1F#Mm	.	voice	.	105.555	F#:7
4A#	a	.	.	.	.	.	.
8F#	way	.	.	.	C	.	.
2r	.	.	.	.	.	.	.
=59	=59	=59	=59	=59	=59	=59	=59
4r	.	1BMm	.	voice	.	107.386	B:7
2d#	that's	.	.	.	.	.	.
4d#	when	.	.	.	.	.	.
=60	=60	=60	=60	=60	=60	=60	=60
8f#	I	1BMm	.	voice	.	109.217	B:7
8d#	want	.	.	.	.	.	.
8c#	to	.	.	.	.	.	.
8B	say	.	.	.	C	.	.
2r	.	.	.	.	.	.	.
=61	=61	=61	=61	=61	=61	=61	=61
8r	.	1EMm	newline	voice	.	111.049	E:7
8e	Come	.	.	.	.	.	.
8e	on	.	.	.	.	.	.
8c#	_	.	.	.	.	.	.
8e	ba	.	.	.	.	.	.
8c#	by	.	.	.	.	.	.
8e	give	.	.	.	.	.	.
8c#	_	.	.	.	.	.	.
=62	=62	=62	=62	=62	=62	=62	=62
8e	me	1EMm	.	voice	.	112.884	E:7
8e	a	.	.	.	.	.	.
8c#	_	.	.	.	.	.	.
4f#	whirl	.	.	.	D	.	.
8e	_	.	.	.	.	.	.
8r	.	.	.	.	.	.	.
8a	I	.	.	.	.	.	.
=63	=63	=63	=63	=63	=63	=63	=63
4e	_	1AM	.	voice	.	114.72	A:maj
8e	wan	.	.	.	.	.	.
8e	na	.	.	.	.	.	.
4e	know	.	.	.	.	.	.
8e	if	.	.	.	.	.	.
8e	you	.	.	.	.	.	.
=64	=64	=64	=64	=64	=64	=64	=64
8a	be	1AM	.	voice	.	116.556	A:maj
4c#	my	.	.	.	.	.	.
[8A	girl	.	.	.	D	.	.
4A]	_	.	.	.	.	.	.
4r	.	.	.	.	.	.	.
=65	=65	=65	=65	=65	=65	=65	=65
*>Letter>A	*>Letter>A	*>Letter>A	*>Letter>A	*>Letter>A	*>Letter>A	*>Letter>A	*>Letter>A
*>Label>Chorus	*>Label>Chorus	*>Label>Chorus	*>Label>Chorus	*>Label>Chorus	*>Label>Chorus	*>Label>Chorus	*>Label>Chorus
[1e	Hey	2AM	newline	voice	.	118.391	A:maj
.	.	2F#Mm	.	voice	.	119.319	F#:7
=66	=66	=66	=66	=66	=66	=66	=66
2e]	_	2Bm	.	voice	.	120.247	B:min
8f#	Hey	2EMm	.	voice	.	121.175	E:7
4c#	_	.	.	.	.	.	.
[8e	ba	.	.	.	.	.	.
=67	=67	=67	=67	=67	=67	=67	=67
8e]	_	2AM	.	voice	.	122.103	A:maj
8f#	by	.	.	.	.	.	.
2r	.	.	.	.	.	.	.
.	.	2F#Mm	.	voice	.	123.03	F#:7
4r	.	.	.	.	.	.	.
=68	=68	=68	=68	=68	=68	=68	=68
4r	.	2Bmm	.	voice	.	123.958	B:min7
8r	.	.	.	.	.	.	.
[8c#	I	.	.	.	.	.	.
8c#]	_	2EMm	.	voice	.	124.886	E:7
8c#	wan	.	.	.	.	.	.
8d	na	.	.	.	.	.	.
[8e	know	.	.	.	.	.	.
=69	=69	=69	=69	=69	=69	=69	=69
8e]	_	2AM	newline	voice	.	125.814	A:maj
8f#	_	.	.	.	.	.	.
8c#	_	.	.	.	.	.	.
[8A	_	.	.	.	.	.	.
4A]	_	2F#Mm	.	voice	.	126.759	F#:7
4r	.	.	.	.	.	.	.
=70	=70	=70	=70	=70	=70	=70	=70
4r	.	2Bm	.	voice	.	127.705	B:min
8A	If	.	.	.	.	.	.
8A	you'll	.	.	.	.	.	.
8c#	be	2EMm	.	voice	.	128.651	E:7
4c#	my	.	.	.	.	.	.
[8A	girl	.	.	.	D	.	.
=71	=71	=71	=71	=71	=71	=71	=71
2A]	_	2AM	.	voice	.	129.596	A:maj
2r	.	2F#Mm	.	voice	.	130.542	F#:7
=72	=72	=72	=72	=72	=72	=72	=72
1r	.	2Bmm	.	voice	.	131.487	B:min7
.	.	2EMm	.	voice	.	132.433	E:7
=73	=73	=73	=73	=73	=73	=73	=73
*>Letter>A	*>Letter>A	*>Letter>A	*>Letter>A	*>Letter>A	*>Letter>A	*>Letter>A	*>Letter>A
*>Label>Fadeout	*>Label>Fadeout	*>Label>Fadeout	*>Label>Fadeout	*>Label>Fadeout	*>Label>Fadeout	*>Label>Fadeout	*>Label>Fadeout
[2.e	Hey	2AM	newline	voice	.	133.379	A:maj
.	.	2F#Mm	.	voice	.	134.337	F#:7
8e]	_	.	.	.	.	.	.
[8a	hey	.	.	.	.	.	.
=74	=74	=74	=74	=74	=74	=74	=74
8a]	_	2Bm	.	voice	.	135.296	B:min
[8f#	hey	.	.	.	.	.	.
8f#]	_	.	.	.	.	.	.
[8e	hey	.	.	.	.	.	.
4e]	_	2EMm	.	voice	.	136.254	E:7
8f#	hey	.	.	.	.	.	.
8c#	_	.	.	.	.	.	.
=75	=75	=75	=75	=75	=75	=75	=75
8e	ba	2AM	.	voice	.	137.213	A:maj
8f#	by	.	.	.	.	.	.
2r	.	.	.	.	.	.	.
.	.	2F#Mm	.	voice	.	138.171	F#:7
4r	.	.	.	.	.	.	.
=76	=76	=76	=76	=76	=76	=76	=76
4r	.	2Bmm	.	voice	.	139.129	B:min7
8r	.	.	.	.	.	.	.
8f#	Come	.	.	.	.	.	.
8e	on	2EMm	.	voice	.	140.088	E:7
4c#	_	.	.	.	.	.	.
[8e	ba	.	.	.	.	.	.
=77	=77	=77	=77	=77	=77	=77	=77
8e]	_	2AM	.	voice	.	141.526	A:maj
8e	by	.	.	.	.	.	.
4f#	_	.	.	.	.	.	.
2r	.	2F#Mm	.	voice	.	.	F#:7
r;	.	1r;	.	r	.	143.177	N.C.
*-	*-	*-	*-	*-	*-	*-	*-
!!!BillboardChartDate: 1962/04/28
!!!BillboardPeak: 1
!!!BillboardWeeksOnChart: 14
!!!COC: Bruce Channel
!!!EMD: Had to lengthen harmonic transcription fade out by one measure to match melodic transcription -Nat Condit-Schultz
!!!ENC: Nathaniel Condit-Schultz
!!!EST: Awating manual error checking and editing.
!!!OTL: Hey! Baby
!!!RDF**chordsym: original McGill chord annotation + (implied pitch class set, with bass pitch in first position)
!!!RDF**harmony: **recip + pitch class of root + harmonic quality
!!!RDF**leadinstrument: original McGill primary instrumentation annotation
!!!RDF**phrase: newline = linebreak in original McGill transcription
!!!RDF**timestamp: McGill audio timestamp in seconds
!!!RDT: 2017/01/12/
!!!SampleActualRank: 40
!!!SampleID#: 0789
!!!SampleTargetRank: 40
